src/main/resources/static/fa/svgs/solid/piggy-bank.svg

<svg xmlns="http://www.w3.org/2000/svg" viewBox="0 0 576 512"><!--! Font Awesome Free 6.5.2 by @fontawesome - https://fontawesome.com License - https://fontawesome.com/license/free (Icons: CC BY 4.0, Fonts: SIL OFL 1.1, Code: MIT License) Copyright 2024 Fonticons, Inc. --><path d="M400 96l0 .7c-5.3-.4-10.6-.7-16-.7H256c-16.5 0-32.5 2.1-47.8 6c-.1-2-.2-4-.2-6c0-53 43-96 96-96s96 43 96 96zm-16 32c3.5 0 7 .1 10.4 .3c4.2 .3 8.4 .7 12.6 1.3C424.6 109.1 450.8 96 480 96h11.5c10.4 0 18 9.8 15.5 19.9l-13.8 55.2c15.8 14.8 28.7 32.8 37.5 52.9H544c17.7 0 32 14.3 32 32v96c0 17.7-14.3 32-32 32H512c-9.1 12.1-19.9 22.9-32 32v64c0 17.7-14.3 32-32 32H416c-17.7 0-32-14.3-32-32V448H256v32c0 17.7-14.3 32-32 32H192c-17.7 0-32-14.3-32-32V416c-34.9-26.2-58.7-66.3-63.2-112H68c-37.6 0-68-30.4-68-68s30.4-68 68-68h4c13.3 0 24 10.7 24 24s-10.7 24-24 24H68c-11 0-20 9-20 20s9 20 20 20H99.2c12.1-59.8 57.7-107.5 116.3-122.8c12.9-3.4 26.5-5.2 40.5-5.2H384zm64 136a24 24 0 1 0 -48 0 24 24 0 1 0 48 0z"/></svg>

<svg xmlns="http://www.w3.org/2000/svg" viewBox="0 0 576 512"><!--! Font Awesome Free 6.1.1 by @fontawesome - https://fontawesome.com License - https://fontawesome.com/license/free (Icons: CC BY 4.0, Fonts: SIL OFL 1.1, Code: MIT License) Copyright 2022 Fonticons, Inc. --><path d="M400 96L399.1 96.66C394.7 96.22 389.4 96 384 96H256C239.5 96 223.5 98.08 208.2 102C208.1 100 208 98.02 208 96C208 42.98 250.1 0 304 0C357 0 400 42.98 400 96zM384 128C387.5 128 390.1 128.1 394.4 128.3C398.7 128.6 402.9 129 407 129.6C424.6 109.1 450.8 96 480 96H512L493.2 171.1C509.1 185.9 521.9 203.9 530.7 224H544C561.7 224 576 238.3 576 256V352C576 369.7 561.7 384 544 384H512C502.9 396.1 492.1 406.9 480 416V480C480 497.7 465.7 512 448 512H416C398.3 512 384 497.7 384 480V448H256V480C256 497.7 241.7 512 224 512H192C174.3 512 160 497.7 160 480V416C125.1 389.8 101.3 349.8 96.79 304H68C30.44 304 0 273.6 0 236C0 198.4 30.44 168 68 168H72C85.25 168 96 178.7 96 192C96 205.3 85.25 216 72 216H68C56.95 216 48 224.1 48 236C48 247 56.95 256 68 256H99.2C111.3 196.2 156.9 148.5 215.5 133.2C228.4 129.8 241.1 128 256 128H384zM424 240C410.7 240 400 250.7 400 264C400 277.3 410.7 288 424 288C437.3 288 448 277.3 448 264C448 250.7 437.3 240 424 240z"/></svg>
